X: 42898
T: Will You Come Down To Limerick
R: slip jig
M: 9/8
K: Gmajor
|:d|cAG GDG G2d|cAG GE/F/G Add|cAG GDG G2A|1 B/c/de g/f/ed cAd:|2 B/c/de g/f/ed cA^F||
|:de^f gaf g3|de^f gag fed|cde =fge =f3|cde =fed cA^F|
de^f gaf g3|de^f gag fga|bgg ag^f g2e|g/f/ed cAG ^FGA|
|:B2d cA^F G3|B3 GBd cBA|BDD ADD G3|1 ^FAd g/f/ed cAG:|2 ^FAd =fed cAd||

